svgs/openfoodfacts.svg

<svg viewBox="0 0 192 192" xml:space="preserve" style="fill-rule:evenodd;clip-rule:evenodd;stroke-linejoin:round;stroke-miterlimit:2" xmlns="http://www.w3.org/2000/svg"><path d="m1191.15 563.635 34.61 34.608a5.998 5.998 0 0 0 8.48 0 6.007 6.007 0 0 0 0-8.486l-34.61-34.607c10.28-12.188 16.47-27.926 16.47-45.1 0-38.662-31.39-70.05-70.05-70.05S1076 471.388 1076 510.05c0 38.662 31.39 70.05 70.05 70.05 17.17 0 32.91-6.193 45.1-16.465Zm-2.7-13.951c9.7-10.376 15.65-24.316 15.65-39.634 0-32.039-26.01-58.05-58.05-58.05-32.04 0-58.05 26.011-58.05 58.05 0 13.972 4.95 26.798 13.18 36.822v-49.573c0-3.311 2.69-6 6-6 3.32 0 6 2.689 6 6v60.596a58.03 58.03 0 0 0 13.1 6.747v-44.958c0-3.312 2.69-6 6-6s6 2.688 6 6v47.9c2.54.341 5.14.516 7.77.516 1.83 0 3.63-.084 5.42-.25v-95.749c0-3.311 2.69-6 6-6s6 2.689 6 6v93.337a57.847 57.847 0 0 0 12.98-5.935V503.97c0-3.311 2.69-6 6-6s6 2.689 6 6v45.714Z" style="fill-rule:evenodd;clip-rule:evenodd;stroke-linejoin:round;stroke-miterlimit:2" transform="translate(-1060 -424)"/></svg>

<?xml version="1.0" encoding="UTF-8" standalone="no"?>
<svg
   width="100%"
   height="100%"
   viewBox="0 0 192 192"
   version="1.1"
   xml:space="preserve"
   style="fill-rule:evenodd;clip-rule:evenodd;stroke-linejoin:round;stroke-miterlimit:2;"
   id="svg10"
   sodipodi:docname="openfoodfacts.svg"
   inkscape:version="1.2.1 (9c6d41e410, 2022-07-14)"
   xmlns:inkscape="http://www.inkscape.org/namespaces/inkscape"
   xmlns:sodipodi="http://sodipodi.sourceforge.net/DTD/sodipodi-0.dtd"
   xmlns="http://www.w3.org/2000/svg"
   xmlns:svg="http://www.w3.org/2000/svg"><defs
   id="defs14" /><sodipodi:namedview
   id="namedview12"
   pagecolor="#ffffff"
   bordercolor="#000000"
   borderopacity="0.25"
   inkscape:showpageshadow="2"
   inkscape:pageopacity="0.0"
   inkscape:pagecheckerboard="0"
   inkscape:deskcolor="#d1d1d1"
   showgrid="false"
   inkscape:zoom="5.3489583"
   inkscape:cx="96"
   inkscape:cy="95.906524"
   inkscape:window-width="1274"
   inkscape:window-height="1303"
   inkscape:window-x="1282"
   inkscape:window-y="36"
   inkscape:window-maximized="0"
   inkscape:current-layer="svg10" />
    <path
   d="M1191.15,563.635L1225.76,598.243C1228.1,600.584 1231.9,600.584 1234.24,598.243C1236.58,595.901 1236.58,592.099 1234.24,589.757L1199.63,555.15C1209.91,542.962 1216.1,527.224 1216.1,510.05C1216.1,471.388 1184.71,440 1146.05,440C1107.39,440 1076,471.388 1076,510.05C1076,548.712 1107.39,580.1 1146.05,580.1C1163.22,580.1 1178.96,573.907 1191.15,563.635ZM1188.45,549.684C1198.15,539.308 1204.1,525.368 1204.1,510.05C1204.1,478.011 1178.09,452 1146.05,452C1114.01,452 1088,478.011 1088,510.05C1088,524.022 1092.95,536.848 1101.18,546.872L1101.18,497.299C1101.18,493.988 1103.87,491.299 1107.18,491.299C1110.5,491.299 1113.18,493.988 1113.18,497.299L1113.18,557.895C1117.21,560.669 1121.61,562.947 1126.28,564.642L1126.28,519.684C1126.28,516.372 1128.97,513.684 1132.28,513.684C1135.59,513.684 1138.28,516.372 1138.28,519.684L1138.28,567.584C1140.82,567.925 1143.42,568.1 1146.05,568.1C1147.88,568.1 1149.68,568.016 1151.47,567.85L1151.47,472.101C1151.47,468.79 1154.16,466.101 1157.47,466.101C1160.78,466.101 1163.47,468.79 1163.47,472.101L1163.47,565.438C1168.07,563.99 1172.42,561.986 1176.45,559.503L1176.45,503.97C1176.45,500.659 1179.14,497.97 1182.45,497.97C1185.76,497.97 1188.45,500.659 1188.45,503.97L1188.45,549.684Z"
   id="path4"
   style="fill-rule:evenodd;clip-rule:evenodd;stroke-linejoin:round;stroke-miterlimit:2"
   transform="translate(-1060,-424)"
   inkscape:label="OpenFoodFacts" />
</svg>
